svg/material-icons/bathroom/materialiconssharp/24px.svg

<svg xmlns="http://www.w3.org/2000/svg" width="24" height="24" viewBox="0 0 24 24"><path d="M22 2H2v20h20V2zM9 18c-.55 0-1-.45-1-1s.45-1 1-1 1 .45 1 1-.45 1-1 1zm0-3c-.55 0-1-.45-1-1s.45-1 1-1 1 .45 1 1-.45 1-1 1zm3 3c-.55 0-1-.45-1-1s.45-1 1-1 1 .45 1 1-.45 1-1 1zm0-3c-.55 0-1-.45-1-1s.45-1 1-1 1 .45 1 1-.45 1-1 1zm3 3c-.55 0-1-.45-1-1s.45-1 1-1 1 .45 1 1-.45 1-1 1zm0-3c-.55 0-1-.45-1-1s.45-1 1-1 1 .45 1 1-.45 1-1 1zm2-3H7v-1c0-2.76 2.24-5 5-5s5 2.24 5 5v1z"/></svg>

<svg xmlns="http://www.w3.org/2000/svg" enable-background="new 0 0 24 24" height="24" viewBox="0 0 24 24" width="24"><g><path d="M0,0h24v24H0V0z" fill="none"/></g><g><path d="M22,2H2v20h20V2z M9,18c-0.55,0-1-0.45-1-1s0.45-1,1-1s1,0.45,1,1S9.55,18,9,18z M9,15c-0.55,0-1-0.45-1-1s0.45-1,1-1 s1,0.45,1,1S9.55,15,9,15z M12,18c-0.55,0-1-0.45-1-1s0.45-1,1-1s1,0.45,1,1S12.55,18,12,18z M12,15c-0.55,0-1-0.45-1-1s0.45-1,1-1 s1,0.45,1,1S12.55,15,12,15z M15,18c-0.55,0-1-0.45-1-1s0.45-1,1-1s1,0.45,1,1S15.55,18,15,18z M15,15c-0.55,0-1-0.45-1-1 s0.45-1,1-1s1,0.45,1,1S15.55,15,15,15z M17,12H7v-1c0-2.76,2.24-5,5-5s5,2.24,5,5V12z"/></g></svg>
